app/images/icons/logo-icon.svg

<svg width="36" height="36" viewBox="0 0 36 36" fill="none" xmlns="http://www.w3.org/2000/svg">
<path fill-rule="evenodd" clip-rule="evenodd" d="M7.68947 17.382C7.68885 16.9852 7.80705 16.5972 8.03046 16.2671C8.25325 15.937 8.5701 15.6796 8.94141 15.5276C9.31272 15.3756 9.72116 15.3359 10.1148 15.4133C10.509 15.4908 10.871 15.6821 11.1544 15.9628C11.4385 16.2436 11.6316 16.6013 11.7095 16.9906C11.7875 17.3798 11.7467 17.7831 11.592 18.1494C11.4372 18.5157 11.1767 18.8285 10.8419 19.0481C10.5071 19.2677 10.1141 19.3843 9.7125 19.383H7.68947V17.382ZM13.4368 17.4006C13.433 16.4254 13.0388 15.4914 12.3408 14.8018C11.6427 14.1122 10.6965 13.7229 9.70941 13.7186C9.10169 13.719 8.50326 13.8678 7.96796 14.1519C8.16228 13.7104 8.44014 13.3093 8.78608 12.9699C9.32076 12.4443 10.0015 12.0867 10.7417 11.9423C11.4824 11.7979 12.2492 11.8731 12.9466 12.1583C13.6441 12.4436 14.24 12.9262 14.6602 13.5454C15.0804 14.1647 15.3057 14.8928 15.3076 15.6381V19.4145L12.8297 19.4027C13.2257 18.808 13.4368 18.1121 13.4368 17.4006ZM16.9685 19.4145V15.6381C16.9704 14.6418 16.6938 13.6643 16.169 12.8134C15.6442 11.9625 14.8917 11.2714 13.9943 10.8161C13.097 10.3609 12.0895 10.1594 11.0839 10.2337C10.0776 10.308 9.11222 10.6554 8.29347 11.2374C8.56515 10.7234 8.9148 10.2533 9.32943 9.84309C10.124 9.06069 11.1352 8.52817 12.2356 8.31273C13.3365 8.09728 14.477 8.20856 15.5136 8.63253C16.5502 9.05648 17.4364 9.77413 18.0602 10.6949C18.684 11.6157 19.0182 12.6984 19.02 13.8064L19.0256 20.3606C19.0262 20.5992 19.0423 20.8375 19.072 21.0742C19.2509 22.3741 19.9001 23.5661 20.8995 24.43C21.8996 25.2938 23.1818 25.7711 24.5105 25.7735C25.6548 25.7751 26.7706 25.421 27.7001 24.7613C27.429 25.2742 27.0818 25.7441 26.6697 26.1556C25.8751 26.9379 24.8639 27.4703 23.7635 27.6859C22.6626 27.9014 21.5221 27.7902 20.4855 27.3666C19.4489 26.9428 18.5621 26.2255 17.9377 25.305C17.3133 24.3844 16.9785 23.3019 16.976 22.1938L16.9685 19.4145ZM20.6897 16.5883L23.1664 16.594C22.714 17.2759 22.5042 18.0873 22.5698 18.9001C22.636 19.7129 22.9739 20.4809 23.5309 21.0829C24.0878 21.685 24.8317 22.0869 25.6449 22.2252C26.4587 22.3635 27.296 22.2304 28.0244 21.8468C27.8294 22.2866 27.5546 22.6874 27.213 23.0293C26.6784 23.5571 25.9976 23.9165 25.2562 24.0622C24.5155 24.2078 23.7468 24.1331 23.0488 23.8475C22.3501 23.5619 21.7535 23.0782 21.3333 22.4577C20.9131 21.8372 20.6891 21.1075 20.6891 20.3611L20.6897 16.5883ZM20.6773 14.9441V13.808C20.6773 12.8562 20.488 11.9137 20.1191 11.0344C19.7503 10.155 19.21 9.35599 18.5287 8.68291C17.1523 7.32356 15.2859 6.55978 13.3396 6.55957C12.3754 6.55947 11.4212 6.74683 10.5306 7.11097C9.64071 7.4751 8.83125 8.00888 8.14989 8.68181C6.77357 10.0409 6 11.8843 6 13.8064V19.6288C6 20.7469 6.63927 21.0567 7.56817 21.0567H15.315V22.1927C15.315 24.115 16.0885 25.9584 17.4649 27.3176C18.8412 28.6768 20.7077 29.4404 22.6539 29.4404C24.6002 29.4404 26.4673 28.6768 27.843 27.3176C29.2194 25.9584 29.9929 24.115 29.9929 22.1927V18.6224L29.9979 18.6105V16.4163C30.009 16.2147 29.9762 16.0131 29.9013 15.8253C29.8265 15.6374 29.7113 15.4677 29.5641 15.3277C29.4168 15.1877 29.2404 15.0808 29.0473 15.0142C28.8542 14.9475 28.6494 14.9227 28.4458 14.9415H20.6773V14.9441ZM26.2773 20.6245C26.0106 20.6245 25.747 20.5727 25.5007 20.4719C25.2544 20.3712 25.0303 20.2236 24.8422 20.0375C24.6535 19.8514 24.5043 19.6304 24.4022 19.3873C24.3001 19.1441 24.2475 18.8835 24.2475 18.6203C24.2475 18.3571 24.3001 18.0965 24.4022 17.8534C24.5043 17.6102 24.6535 17.3893 24.8422 17.2032C25.0303 17.0171 25.2544 16.8695 25.5007 16.7687C25.747 16.668 26.0106 16.6162 26.2773 16.6162H28.3035V18.6173C28.3041 19.1487 28.0906 19.6585 27.7106 20.0348C27.3306 20.411 26.8151 20.6235 26.2773 20.6245Z" fill="#1D53C0"/>
</svg>

<svg width="36" height="36" fill="none" xmlns="http://www.w3.org/2000/svg"><path fill-rule="evenodd" clip-rule="evenodd" d="M7.69 17.382a1.981 1.981 0 01.34-1.115c.223-.33.54-.587.911-.74a2.053 2.053 0 012.213.436 1.978 1.978 0 01.438 2.187 2.01 2.01 0 01-.75.898c-.335.22-.728.336-1.13.335H7.69v-2.001zm5.747.019a3.673 3.673 0 00-1.096-2.6 3.769 3.769 0 00-2.632-1.082c-.607 0-1.206.149-1.741.433a3.838 3.838 0 012.774-2.21 3.87 3.87 0 012.205.216 3.814 3.814 0 011.713 1.387c.42.62.646 1.348.648 2.093v3.777l-2.478-.012a3.61 3.61 0 00.607-2.002zm3.531 2.014v-3.777a5.36 5.36 0 00-.799-2.825 5.45 5.45 0 00-2.175-1.997 5.535 5.535 0 00-5.7.421 5.727 5.727 0 011.035-1.394 5.703 5.703 0 012.907-1.53 5.747 5.747 0 013.278.32 5.663 5.663 0 012.546 2.062 5.56 5.56 0 01.96 3.111l.006 6.555c0 .238.016.476.046.713A5.413 5.413 0 0020.9 24.43a5.54 5.54 0 003.61 1.343 5.499 5.499 0 003.19-1.012 5.802 5.802 0 01-1.03 1.395 5.705 5.705 0 01-2.907 1.53 5.75 5.75 0 01-3.278-.32 5.669 5.669 0 01-2.547-2.061 5.564 5.564 0 01-.962-3.111l-.008-2.78zm3.722-2.827l2.476.006a3.64 3.64 0 00.365 4.489 3.732 3.732 0 002.114 1.142 3.758 3.758 0 002.38-.378c-.196.44-.47.84-.812 1.182a3.838 3.838 0 01-1.957 1.033c-.74.146-1.51.071-2.207-.215a3.812 3.812 0 01-1.716-1.39 3.738 3.738 0 01-.644-2.096v-3.773zm-.013-1.644v-1.136a7.17 7.17 0 00-.558-2.774 7.244 7.244 0 00-1.59-2.351 7.386 7.386 0 00-5.19-2.123 7.42 7.42 0 00-2.808.551c-.89.364-1.7.898-2.381 1.57A7.202 7.202 0 006 13.807v5.823c0 1.118.64 1.428 1.568 1.428h7.747v1.136c0 1.922.774 3.765 2.15 5.125a7.385 7.385 0 005.189 2.122 7.384 7.384 0 005.189-2.122 7.202 7.202 0 002.15-5.125v-3.57l.005-.013v-2.194a1.389 1.389 0 00-.434-1.088 1.424 1.424 0 00-1.118-.386h-7.769v.002zm5.6 5.68a2.05 2.05 0 01-1.435-.586 2.001 2.001 0 01-.595-1.418 1.98 1.98 0 01.595-1.417 2.029 2.029 0 011.435-.587h2.026v2.001a1.99 1.99 0 01-.592 1.418 2.05 2.05 0 01-1.434.59z" fill="#1D53C0"/></svg>
